img/decorate-rainbow.svg

<svg width="185" height="160" viewBox="0 0 185 160" fill="none" xmlns="http://www.w3.org/2000/svg">
<path d="M174.314 90.7538C171.682 97.0234 165.187 98.5012 159.299 96.6829C159.196 96.4295 159.095 96.1751 158.971 95.9289C158.237 94.4705 155.531 94.9405 155.995 96.742C157.198 101.412 156.792 106.433 152.523 109.487C147.852 112.827 141.629 110.688 138.327 106.592C137.973 106.154 137.538 106.049 137.14 106.124C136.85 106.107 136.556 106.207 136.374 106.461C134.834 108.613 133.697 110.603 130.915 111.296C127.912 112.045 125.052 110.639 123.588 107.974C120.195 101.801 125.114 96.2999 131.167 95.2525C132.358 95.0459 132.385 93.308 131.162 93.125L130.896 93.1067C125.773 89.6698 118.363 85.2199 123.493 78.2072C128.215 71.7527 136.125 74.5048 141.218 78.7217C142.421 79.7176 144.271 77.8821 143.156 76.7252C142.958 76.5176 142.74 76.3292 142.529 76.1316C143.179 76.2855 143.988 75.9813 144.014 75.2C144.241 68.1999 149.794 61.7741 157.264 62.8993C164.614 64.0068 167.533 71.7486 163.807 77.5855C163.197 77.7831 162.906 78.3088 162.934 78.852C162.081 80.4725 164.499 82.051 165.841 80.5547L165.925 80.4476C167.784 80.7061 169.674 80.9251 171.395 81.651C175.236 83.2693 175.799 87.2125 174.314 90.7538ZM93.749 67.5978C82.2862 72.2406 75.8209 84.8151 79.0281 96.6416C76.1414 96.3986 73.1616 96.8666 70.4085 97.9784C67.4137 82.4257 71.3942 66.5036 86.7238 59.0468C101.532 51.8418 119.006 57.7408 127.336 71.6187C124.847 72.2428 122.55 73.6227 120.766 75.9749C116.279 66.3366 103.546 63.6302 93.749 67.5978ZM87.4804 105.41C92.6311 112.652 86.9701 121.298 78.9207 120.84C78.5646 120.527 78.187 120.231 77.7703 119.974C76.5104 119.196 74.6334 120.734 75.815 121.987C79.0259 125.39 80.5164 130.896 76.7257 134.6C72.6656 138.565 65.8073 136.464 62.9582 132.155C62.772 131.874 62.484 131.876 62.2667 132.016C61.6865 131.71 60.9228 131.823 60.6295 132.602C58.1909 139.051 55.8977 146.349 47.2973 146.196C35.6212 145.986 41.7528 131.884 44.2745 126.028C45.121 125.149 44.096 123.815 42.9484 124.164C39.268 125.285 30.1968 129.166 29.5638 122.123C29.0127 116.012 36.0555 114.332 40.876 114.379C41.1067 114.524 41.3289 114.681 41.5779 114.804C42.7991 115.411 44.1304 113.652 43.1892 112.65C38.4227 107.573 39.983 101.924 46.624 99.277C52.7065 96.8525 60.6465 98.5152 61.2128 106.163C61.3124 107.503 63.3554 107.445 63.529 106.157C63.55 105.994 63.559 105.84 63.5731 105.681C63.9964 105.861 64.4923 105.852 64.9285 105.489C71.5506 99.9686 81.5819 97.1134 87.4804 105.41ZM50.6043 58.9924C56.7544 46.1045 67.7464 36.2498 81.085 31.2128C108.429 20.8894 138.792 34.0256 151.204 60.1252C146.991 61.6822 143.821 65.4096 142.456 69.9583C136.282 48.1901 112.548 34.5825 90.3566 40.2321C69.6843 45.4947 43.2922 73.3175 57.8942 95.5056C58.7473 96.8012 60.7963 95.5105 60.2061 94.1338C50.6877 71.9571 71.8382 47.9529 92.9727 43.5458C113.826 39.1969 135.067 53.1813 139.59 73.8891C137.106 72.3665 134.256 71.413 131.436 71.2492C131.407 71.0257 131.334 70.7916 131.192 70.5472C122.081 54.9263 103.119 47.7769 86.2836 55.3835C70.5378 62.4984 60.8315 82.2726 68.5784 98.5935L68.7014 98.7598C66.7576 99.7801 64.9748 101.149 63.487 102.855C62.1979 95.4239 52.4908 93.4362 45.716 95.9535C45.0409 82.9167 44.8069 71.1421 50.6043 58.9924ZM167.884 77.4092C170.961 70.6241 167.208 62.0986 159.624 59.9207C158.12 59.4883 156.669 59.3134 155.284 59.3493C155.249 59.2168 155.203 59.0817 155.138 58.9437C141.922 31.0889 109.921 17.1239 80.6385 27.4793C66.5784 32.4511 54.8635 42.6112 48.0265 55.8548C41.9046 67.7139 38.5238 83.9845 43.4967 96.8053L43.5774 96.9371C40.0112 98.8456 37.0439 101.76 36.8213 106.035C36.7021 108.319 37.3522 110.585 38.6687 112.351C32.379 112.444 25.373 115.402 26.5679 122.965C27.5818 129.374 34.1008 130.182 39.4346 128.534C35.0765 135.577 35.3823 147.281 44.2612 149.538C52.2915 151.582 63.2085 143.728 63.1977 135.105C66.5118 139.878 73.8589 141.208 78.5239 137.229C82.1756 134.115 83.1684 128.2 81.1477 123.859C89.5053 124.061 95.6828 113.38 91.9934 105.492C89.8421 100.894 86.0277 98.1456 81.739 97.0817C80.256 87.683 82.5831 78.265 90.9828 72.7198C100.122 66.6857 115.581 68.1812 118.399 80.5009C118.426 80.6204 118.466 80.7286 118.511 80.8336C117.488 86.2249 121.451 90.9304 126.665 93.4838C120.261 95.5512 117.049 104.125 121.167 110.101C123.433 113.39 127.377 115.018 131.281 114.05C133.6 113.475 136.199 111.887 137.366 109.67C141.235 114.061 147.968 115.524 153.265 112.723C157.884 110.282 160.688 104.638 160.036 99.4729C167.065 102.198 175.364 98.2196 177.913 90.8561C180.679 82.8685 174.863 77.9866 167.884 77.4092Z" fill="#FEB9CC"/>
</svg>

<svg width="185" height="160" viewBox="0 0 185 160" fill="none" xmlns="http://www.w3.org/2000/svg"><path d="M174.314 90.754c-2.632 6.27-9.127 7.747-15.015 5.929-.103-.254-.204-.508-.328-.754-.734-1.459-3.44-.989-2.976.813 1.203 4.67.797 9.691-3.472 12.745-4.671 3.34-10.894 1.201-14.196-2.895-.354-.438-.789-.543-1.187-.468-.29-.017-.584.083-.766.337-1.54 2.152-2.677 4.142-5.459 4.835-3.003.749-5.863-.657-7.327-3.322-3.393-6.173 1.526-11.674 7.579-12.722 1.191-.206 1.218-1.944-.005-2.127l-.266-.018c-5.123-3.437-12.533-7.887-7.403-14.9 4.722-6.454 12.632-3.702 17.725.515 1.203.996 3.053-.84 1.938-1.997-.198-.207-.416-.396-.627-.593.65.153 1.459-.15 1.485-.932.227-7 5.78-13.426 13.25-12.3 7.35 1.107 10.269 8.849 6.543 14.685-.61.198-.901.724-.873 1.267-.853 1.62 1.565 3.199 2.907 1.703l.084-.107c1.859.258 3.749.477 5.47 1.203 3.841 1.618 4.404 5.562 2.919 9.103zM93.749 67.598c-11.463 4.643-17.928 17.217-14.72 29.044-2.888-.243-5.867.225-8.62 1.336-2.995-15.552.985-31.474 16.315-38.931 14.808-7.205 32.282-1.306 40.612 12.572-2.489.624-4.786 2.004-6.57 4.356-4.487-9.638-17.22-12.345-27.017-8.377zM87.48 105.41c5.151 7.242-.51 15.888-8.56 15.43a8.528 8.528 0 00-1.15-.866c-1.26-.778-3.137.76-1.955 2.013 3.21 3.403 4.701 8.909.91 12.613-4.06 3.965-10.918 1.864-13.767-2.445-.186-.281-.474-.279-.691-.139-.58-.306-1.344-.193-1.638.586-2.438 6.449-4.731 13.747-13.332 13.594-11.676-.21-5.544-14.312-3.022-20.168.846-.879-.179-2.213-1.327-1.864-3.68 1.121-12.751 5.002-13.384-2.041-.551-6.111 6.492-7.791 11.312-7.744.23.145.453.302.702.425 1.221.607 2.552-1.152 1.611-2.154-4.766-5.077-3.206-10.726 3.435-13.373 6.082-2.424 14.023-.762 14.589 6.886.1 1.34 2.142 1.282 2.316-.006.021-.163.03-.317.044-.476.423.18.92.171 1.355-.192 6.623-5.52 16.654-8.376 22.552-.079zM50.604 58.992c6.15-12.887 17.142-22.742 30.481-27.78 27.344-10.323 57.707 2.814 70.119 28.913-4.213 1.557-7.383 5.285-8.748 9.833-6.174-21.768-29.908-35.375-52.1-29.726-20.672 5.263-47.064 33.085-32.462 55.274.853 1.295 2.902.004 2.312-1.372-9.518-22.177 11.632-46.181 32.767-50.588 20.853-4.35 42.094 9.635 46.617 30.343-2.484-1.522-5.334-2.476-8.154-2.64a1.856 1.856 0 00-.244-.702c-9.111-15.62-28.073-22.77-44.908-15.163-15.746 7.114-25.453 26.889-17.706 43.21l.123.166a18.003 18.003 0 00-5.214 4.095c-1.29-7.431-10.996-9.419-17.771-6.901-.675-13.037-.91-24.812 4.888-36.962zm117.28 18.417c3.077-6.785-.676-15.31-8.26-17.488a14.304 14.304 0 00-4.34-.572 2.353 2.353 0 00-.146-.405c-13.216-27.855-45.217-41.82-74.5-31.465-14.06 4.972-25.775 15.132-32.612 28.376-6.121 11.859-9.502 28.13-4.53 40.95l.081.132c-3.566 1.909-6.533 4.823-6.756 9.098-.119 2.284.531 4.55 1.848 6.316-6.29.093-13.296 3.051-12.101 10.614 1.014 6.409 7.533 7.217 12.867 5.569-4.358 7.043-4.053 18.747 4.826 21.004 8.03 2.044 18.947-5.81 18.937-14.433 3.314 4.773 10.66 6.103 15.326 2.124 3.652-3.114 4.644-9.029 2.624-13.37 8.357.202 14.535-10.479 10.845-18.367-2.15-4.598-5.965-7.346-10.254-8.41-1.483-9.399.844-18.817 9.244-24.362 9.139-6.034 24.598-4.539 27.416 7.78.027.12.067.229.112.334-1.023 5.39 2.94 10.096 8.154 12.65-6.404 2.067-9.616 10.641-5.498 16.617 2.266 3.289 6.21 4.917 10.114 3.949 2.319-.575 4.918-2.163 6.085-4.38 3.869 4.391 10.602 5.854 15.899 3.053 4.619-2.441 7.423-8.085 6.771-13.25 7.029 2.725 15.328-1.253 17.877-8.617 2.766-7.987-3.05-12.87-10.029-13.447z" fill="#FEB9CC"/></svg>
